img/icons/CreditCard.svg

<svg width="24" height="24" viewBox="0 0 24 24" fill="none" xmlns="http://www.w3.org/2000/svg">
<path d="M3.21799 6.09204L4.10899 6.54603L3.21799 6.09204ZM4.0918 5.21799L4.54579 6.10899L4.0918 5.21799ZM4.0918 18.782L4.54579 17.891H4.54579L4.0918 18.782ZM3.21799 17.908L2.32698 18.362H2.32698L3.21799 17.908ZM20.7822 17.908L19.8912 17.454L20.7822 17.908ZM19.9078 18.782L19.4538 17.891L19.9078 18.782ZM20.7822 6.09204L19.8912 6.54603V6.54603L20.7822 6.09204ZM19.9078 5.21799L20.3618 4.32698V4.32698L19.9078 5.21799ZM7 14C6.44772 14 6 14.4477 6 15C6 15.5523 6.44772 16 7 16V14ZM11 16C11.5523 16 12 15.5523 12 15C12 14.4477 11.5523 14 11 14V16ZM3 10C2.44772 10 2 10.4477 2 11C2 11.5523 2.44772 12 3 12V10ZM21 12C21.5523 12 22 11.5523 22 11C22 10.4477 21.5523 10 21 10V12ZM3 8C2.44772 8 2 8.44772 2 9C2 9.55228 2.44772 10 3 10V8ZM21 10C21.5523 10 22 9.55228 22 9C22 8.44772 21.5523 8 21 8V10ZM20 8.19995V15.8H22V8.19995H20ZM17.8002 18H6.2002V20H17.8002V18ZM4 15.8V8.19995H2V15.8H4ZM6.2002 6H17.8002V4H6.2002V6ZM4 8.19995C4 7.6234 4.00078 7.25114 4.02393 6.96783C4.04612 6.6962 4.0838 6.59549 4.10899 6.54603L2.32698 5.63805C2.13419 6.01642 2.06287 6.40961 2.03057 6.80495C1.99922 7.18861 2 7.6564 2 8.19995H4ZM6.2002 4C5.65663 4 5.18874 3.99922 4.80498 4.03057C4.40962 4.06286 4.01624 4.13416 3.63781 4.32698L4.54579 6.10899C4.59517 6.08383 4.69595 6.04613 4.9678 6.02393C5.25126 6.00078 5.62365 6 6.2002 6V4ZM4.10899 6.54603C4.205 6.35761 4.35788 6.20474 4.54579 6.10899L3.63781 4.32698C3.07306 4.61473 2.61447 5.07382 2.32698 5.63805L4.10899 6.54603ZM6.2002 18C5.62367 18 5.25127 17.9992 4.96782 17.9761C4.69598 17.9538 4.59519 17.9161 4.54579 17.891L3.63781 19.673C4.01623 19.8658 4.40959 19.9371 4.80496 19.9694C5.18873 20.0008 5.65662 20 6.2002 20V18ZM2 15.8C2 16.3435 1.99922 16.8113 2.03057 17.195C2.06287 17.5904 2.13418 17.9836 2.32698 18.362L4.10899 17.454C4.08381 17.4046 4.04613 17.3039 4.02393 17.0322C4.00078 16.7488 4 16.3765 4 15.8H2ZM4.54579 17.891C4.35778 17.7952 4.20494 17.6424 4.10899 17.454L2.32698 18.362C2.61452 18.9264 3.07317 19.3853 3.63781 19.673L4.54579 17.891ZM20 15.8C20 16.3766 19.9993 16.7489 19.9762 17.0323C19.954 17.3041 19.9163 17.4047 19.8912 17.454L21.6732 18.362C21.8661 17.9835 21.9373 17.5902 21.9696 17.1949C22.0008 16.8112 22 16.3434 22 15.8H20ZM17.8002 20C18.3438 20 18.8115 20.0008 19.1951 19.9694C19.5904 19.9371 19.9835 19.8657 20.3618 19.673L19.4538 17.891C19.4043 17.9162 19.3036 17.9539 19.0321 17.9761C18.7489 17.9992 18.3767 18 17.8002 18V20ZM19.8912 17.454C19.7956 17.6417 19.6425 17.7948 19.4538 17.891L20.3618 19.673C20.9257 19.3856 21.3854 18.927 21.6732 18.362L19.8912 17.454ZM22 8.19995C22 7.6565 22.0008 7.1887 21.9695 6.80511C21.9373 6.40983 21.8661 6.01653 21.6732 5.63805L19.8912 6.54603C19.9164 6.59537 19.954 6.69598 19.9762 6.96767C19.9993 7.25105 20 7.6233 20 8.19995H22ZM17.8002 6C18.3768 6 18.7489 6.00078 19.0321 6.02393C19.3036 6.04611 19.4043 6.08377 19.4538 6.10899L20.3618 4.32698C19.9835 4.13421 19.5904 4.06288 19.1951 4.03057C18.8115 3.99922 18.3437 4 17.8002 4V6ZM21.6732 5.63805C21.3854 5.07316 20.9259 4.61439 20.3618 4.32698L19.4538 6.10899C19.6424 6.20507 19.7956 6.35828 19.8912 6.54603L21.6732 5.63805ZM7 16H11V14H7V16ZM3 12H21V10H3V12ZM3 10H21V8H3V10Z" fill="#5D5D62"/>
</svg>

<svg width="24" height="24" fill="none" xmlns="http://www.w3.org/2000/svg"><path d="m3.218 6.092.891.454-.891-.454Zm.874-.874.454.891-.454-.891Zm0 13.564.454-.891-.454.891Zm-.874-.874-.891.454.891-.454Zm17.564 0-.89-.454.89.454Zm-.874.874-.454-.891.454.891Zm.874-12.69-.89.454.89-.454Zm-.874-.874.454-.891-.454.891ZM7 14a1 1 0 1 0 0 2v-2Zm4 2a1 1 0 1 0 0-2v2Zm-8-6a1 1 0 1 0 0 2v-2Zm18 2a1 1 0 1 0 0-2v2ZM3 8a1 1 0 0 0 0 2V8Zm18 2a1 1 0 1 0 0-2v2Zm-1-1.8v7.6h2V8.2h-2ZM17.8 18H6.2v2h11.6v-2ZM4 15.8V8.2H2v7.6h2ZM6.2 6h11.6V4H6.2v2ZM4 8.2c0-.577 0-.949.024-1.232.022-.272.06-.373.085-.422l-1.782-.908c-.193.378-.264.772-.296 1.167C1.999 7.189 2 7.656 2 8.2h2ZM6.2 4c-.543 0-1.011 0-1.395.03-.395.033-.789.104-1.167.297l.908 1.782c.05-.025.15-.063.422-.085C5.25 6 5.624 6 6.2 6V4ZM4.11 6.546a1 1 0 0 1 .437-.437l-.908-1.782a3 3 0 0 0-1.311 1.311l1.782.908ZM6.2 18c-.576 0-.949 0-1.232-.024-.272-.022-.373-.06-.422-.085l-.908 1.782c.378.193.772.264 1.167.296.384.032.852.031 1.395.031v-2ZM2 15.8c0 .543 0 1.011.03 1.395.033.395.104.789.297 1.167l1.782-.908c-.025-.05-.063-.15-.085-.422C4 16.75 4 16.377 4 15.8H2Zm2.546 2.091a1 1 0 0 1-.437-.437l-1.782.908a3 3 0 0 0 1.31 1.311l.909-1.782ZM20 15.8c0 .577 0 .949-.024 1.232-.022.272-.06.373-.085.422l1.782.908c.193-.378.264-.772.297-1.167.03-.384.03-.852.03-1.395h-2ZM17.8 20c.544 0 1.011 0 1.395-.03.395-.033.788-.104 1.167-.297l-.908-1.782c-.05.025-.15.063-.422.085C18.75 18 18.377 18 17.8 18v2Zm2.091-2.546a1 1 0 0 1-.437.437l.908 1.782a3 3 0 0 0 1.311-1.311l-1.782-.908ZM22 8.2c0-.543 0-1.011-.03-1.395-.033-.395-.104-.788-.297-1.167l-1.782.908c.025.05.063.15.085.422C20 7.25 20 7.623 20 8.2h2ZM17.8 6c.577 0 .949 0 1.232.024.272.022.372.06.422.085l.908-1.782c-.378-.193-.772-.264-1.167-.296C18.811 3.999 18.344 4 17.8 4v2Zm3.873-.362a3 3 0 0 0-1.311-1.311l-.908 1.782a1 1 0 0 1 .437.437l1.782-.908ZM7 16h4v-2H7v2Zm-4-4h18v-2H3v2Zm0-2h18V8H3v2Z" fill="#5D5D62"/></svg>
